X: 3
T: Jenny Picking Cockles
R: reel
M: 4/4
L: 1/8
K: Gmaj
fagf dc~c2|Bcde f2fa|g2fg dc~c2|Acfc AGG^F|Gg~g2 dc~c2|Bcde f2fa|g2fg dc~c2|Acfc AGG^F||Gg~g2 bgag|fd~d2 fdcA|dgga bgag|fdcA AGGB|dgga bgag|f2ga fdga|bgaf gbag|fdcA G2g2||


Tune 202	Setting 202

